X:1
L:1/4
Q:1/4=72
M:3/8
V:1
V:2 clef=bass 
K:C
[V:1] [C^FA] [CA]/ | [CA]/[Ec]/[DB]/ | [CA]3/2 | [EG_B^c]3/2 |
[V:2] [_E,,A,,]/4[_E,,A,,]/4[_E,,A,,]/4[_E,,A,,]/4[_E,,A,,]/4[_E,,A,,]/4 | [=E,,A,,]/4[E,,A,,]/4[E,,A,,]/4[E,,A,,]/4[E,,^G,,]/4[E,,G,,]/4 | [A,,,A,,]/4A,,/4A,,/4A,,/4A,,/4A,,/4 | A,,/4A,,/4A,,/4A,,/4A,,/4A,,/4 |
